X: 9086
T: Da Noosts O' Bacca
R: jig
M: 6/8
K: Dmajor
A|:dcd f2d|edB A2B|dcd f2a|baf e2a|
dcd f2d|edB A2B|dea baf|e3 d3:|
|:dcd f2a|baf e2a|dcd f2a|b2a a3|
dcd f2a|baf e2a|dea baf|e3 d3:|

